X: 21082
M: 6/8
L: 1/8
K: Bb
V: 1 name="2"
f |\
b2f dfd | BdB F2B | dBd fed | dcc cfa |\
b2f dfd | BdB F2F | dBf edc | BBB B2 H|]
dBd fed | c2c c2d | ede gfe | d2d d2d |\
dcd fed | c2c c2B | A2A GFG | F2F F2F |
g2g d2d | B2B G2d | e2d c2B | A2A A2d |\
g2g d2d | B2B G2B | AcB AG^F | G2G "^D.C."G2 |]


